X:1
T:Il estoit un clerc
T:Il estoit un clerc
T:Jean de Castro
T:Source : Livre de chansons à 3 parties---Paris---A.le Roy & R.Ballard---1575. Editor : André Vierendeels (22/09/15).
T:Notes : Original clefs : G2, C1, C3 Editorial accidentals above the staff
C:Jean de Castro
%%score [ 1 2 3 ]
L:1/8
Q:1/4=90
M:4/4
K:C
V:1 treble nm="Superius 1" snm="S 1"
V:2 treble nm="Superius 2" snm="S 2"
V:3 treble-8 nm="Tenor" snm="T"
V:1
 z4 c2 c2 | c4 e4 | d2 e4 f2 | g4 e4 | d2 d2 e2 f2 | g6 f2 | e4 d4 | z4 z2 g2- | g2 f2 e3 e | %9
w: Il es-|toit un|clerc qui ay-|mer vou-|loit, il ay- moit|u- ne|da- me|qui|_ tous- jours, mes|
 e2 c2 d4 | e2 g4 e2 | f4 d4 | e2 e4 g2 | f2 d2 e2 f2 | g3 g e2 d2 | c4 A4 | B4 z2 e2 | %17
w: a- mou- ret-|tes, qui tous-|jours pleu-|roit, qui tous-|jours pleu- * *|||roit, tant|
 c3 c d2 d2 | e2 g2 f2 e2 | d2 c3 B/A/ B2 | c4 z4 | e2 e2 e4- | e2 g2 f4 | e4 c2 c2 | c4 e4 | %25
w: mal, mes a- mou-|ret- tes, j'ay tant|mal au _ _ _|doigt,|j'ay ma va-|* che'à trai-|re, j'ay tant|mal au|
 d4 z4 | z8 | e2 f2 g2 e2 | f3 g c2 d2 |"^#" e2 g2 g2 f2 | g4 z2 e2 | e2 e2 e4 | g4 f4 | z4 d4 | %34
w: doigt,||qui vous la, mes|a- mou- ret- tes,|qui vous la trai-|roit: je|don'- roy' vo-|lon- tiers|le|
 c2 A4 c2 | B2 A2 B4 | c2 e2 d4 | z2 c4 B2 | c8 | z2 e4 f2 | g4 e4 | d4 g4 | z2 f4 d2 | e6 f2 | %44
w: pot et, mes|a- mou- ret-|tes, le pot|et mon|laict,|la va-|che fut|fie- re,|ru- a|de, mes|
 g2 e2 f2 d2 | z4 z2 c2- | c2 B2 A2 A2 | B2 GA Bc d2 | A3 B cd e2 | z2 g4 e2 | c3 c d2 d2 | %51
w: a- mou- ret- tes,|ru-|* a du jar-|ret, ru- a du jar- ret,|ru- a du jar- ret,|ru- a|de, mes a- mou-|
 e2 g2 f2 e2 | c4 d4 | e8 | z4 c2 c2 | c4 e4 | d2 e4 f2 | g4 e4 | d4 e2 f2 | g2 g2 g2 f2 | e4 d4 | %61
w: ret- tes, ru- a|du jar-|ret,|et cas-|sa le|pot, et cas-|sa le|pot, res- pan-|dit, mes a- mou-|ret- tes,|
 z4 z2 g2- | g2 f2 e3 e | e2 e2 d4 | e2 g4 e2 | f4 d4 | !fermata!e8 |] %67
w: res|_ pan- dit, mes|a- mou- ret-|tes, res- pan-|dit mon|laict.|
V:2
 G2 G2 A4- | A2 c4 B2- | B2 c4 A2 | G4 c4 | B2 B2 c2 A2 | B2 c2 A4 | G2 c4 B2 | A4 G4 | A2 A2 c4- | %9
w: Il es- toit|_ un clerc|_ qui ay-|mer vou-|loit, il ay- moit|u- ne da-|me qui tous-|jours, mes|a- mou- ret-|
 c2 BA B4 | c2 c4 G2 | A4 B4 | c8 | z2 B2 c2 d2 | G2 B2 c2 B2 |"^#""^#" A2 G3 F/E/ F2 | G4 z2 c2 | %17
w: |te, qui tous-|jours pleu-|roit,|mes a- mou-|ret- tes, qui tous-|jours pleu- * * *|roit, tant|
 A3 G A2 B2 | c2 c2 A2 G2 | A4 F4 | E4 G2 G2 | G4 c4- | c2 B4 A2 | z2 c4 A2 | A4 c4 | B2 B4 G2 | %26
w: mal, mes a- mou-|ret- tes, j'ay tant|mal au|doigt, j'ay ma|va- che'à|_ trai- re,|j'ay tant|mal au|doigt, que don'-|
 A2 B2 c2 B2 | c2 A2 B2 c2 | A3 G A2 B2 | c2 B2 A2 A2 | G8 | z4 G4 | G2 G2 A4 | c4 B2 G2 | %34
w: riez vous, bel- le,|qui vous la, mes|a- mou- ret- tes,|qui vous la trai-|roit:|je|don'- roy' vo-|lon- tiers le|
 A2 F4 E2 | D2 C2 D4 | C4 z2 D2 | G2 G2 F4 | E2 G4 A2 | B2 c2 A4 | G2 G2 c4 | z2 B4 G2 | A4 A2 B2 | %43
w: pot et, mes|a- mou- ret-|tes, le|pot et mon|laict, la va-|che fut fie-|re, ru- a,|ru- a|du jar- ret,|
 z2 c4 A2 | G2 c2 A3 G | A2 B2 c4 |"^#" A2 G4 F2 | G4 D3 E | FG A2 E3 F | G2 G2 E4 | z2 A2 A2 B2 | %51
w: ru- a|de, mes a- mou-|ret- tes, ru-|a du jar-|ret, ru- a|du jar- ret, ru- a|du jar- ret,|mes a- mou-|
 c2 c2 A2 G2 | A4 F4 | G4 G4- | G2 G2 A4 | z2 c4 B2 | z2 c4 A2 | G4 c4 | B4 z2 A2 | B2 c4 A2 | %60
w: ret- tes, ru- a|du jar-|ret, et|_ cas- sa|le pot,|et cas-|sa le|pot, res-|pan- dit, mes|
 G2 c2 B4 | A4 z2 G2 | A2 A2 c4- | c2 BA B4 | G4 c4 | A2 c4 B2 | !fermata!c8 |] %67
w: a- mou- ret-|tes, res-|pan- dit, mes|_ a- mou- ret-|tes, res-|pan- dit mon|laict.|
V:3
 c2 c2 f4 | a6 g2 | z2 c4 d2 | e4 c4 | g4 z4 | z8 | z4 z2 g2- | g2 f2 e4 | d4 c4- | c2 c2 g4 | %10
w: Il es- toit|un clerc|qui ay-|mer vou-|loit,||qui|_ tous- jours,|mes a-|* mou- ret-|
 c2 c4 c2 | f4 g4 | c8 | z2 g2 e2 d2 | c2 G2 c2 G2 | c4 d4 | G2 G2 g2 c2 | f3 e f2 g2 | %18
w: tes, qui tous-|jours pleu-|roit,|mes a- mou-|ret- tes, qui tous-|jours pleu-|roit, et jay tant|mal, mes a- mou-|
 c2 c2 d2 e2 | f4 d4 | c4 z4 | c2 c2 c4 | e4 d4 | c4 z4 | z4 c4 | g2 g4 e2 | f2 g2 c2 g2 | %27
w: ret- tes, j'ay tant|mal au|doigt,|j'ay ma va-|che'à trai-|re,|au|doigt, que don'-|riez vous, bel- le,|
 a2 f2 e2 A2 | d3 e f2 d2 | c2 G2 d2 d2 | G4 z2 c2 | c2 c2 c4 | e4 d4 | z2 c2 g4 | z4 z2 c2 | %35
w: qui vous la, mes|a- mou- ret- tes,|qui vous la trai-|roit: je|don'- roy' vo-|lon- tiers|le pot,|mes|
 G2 A2 G4 | c2 g4 f2 | e4 d4 | c8 | z8 | e6 f2 | g4 e4 | d6 G2 | z2 c4 d2 | e2 A2 d3 e | %45
w: a- mou- ret-|tes, le pot|et mon|laict,||la va-|che fut|fie- re,|ru- a|de, mes a- mou-|
 f2 d2 c2 c2 | d6 d2 | G2 G3 ABc | d2 A3 Bcd | e2 c4 c2 | f3 e f2 g2 | c2 c2 d2 e2 | f4 d4 | %53
w: ret- tes, ru- a|du jar-|ret, ru- a du jar-|ret, ru- a du jar-|ret, ru- a|de, mes a- mou-|ret- tes, ru- a|du jar-|
 c4 z2 c2- | c2 c2 f4- | f2 a4 g2 | z2 c4 d2 | e4 c4 | g4 z4 | z8 | z4 z2 g2- | g2 f2 e4 | d4 c4- | %63
w: ret, et|_ cas- sa|_ le pot,|et cas-|sa le|pot,||res-|* pan- dit,|mes a-|
 c2 c2 g4 | c2 c4 c2 | F4 G4 | !fermata!c8 |] %67
w: * mou- ret-|tes, res- pan-|dit mon|laict.|

